X: 42213
T: Waves Of Rush, The
R: reel
M: 4/4
K: Eminor
f|fgfe fgb2-|bgfd efBf|fgfe fgbf|gfdf e3:|
|:B|defB B2bf|gfeg fdeB|defB B2bf|gfdf e3:|
|:B|GABE EeBE|cEBe cABE|GABE eEBE|ABED E3:|
f|gBfB gBfB|gBfb gefB|gBBg fBBf|gfdf e3f|
gBfB gBfB|gBfb gefB|gB~B2 fB~B2|gfdf e3||

